dist/svgs/org-search.svg

<svg xmlns="http://www.w3.org/2000/svg" viewBox="0 0 512 512"><path d="M506 430q6 5 6 13t-6 14l-50 50q-6 6-14 6-9 0-13-6L318 397q-16-18-16-39 0-11 5-23l-13-13q-51 40-113 40-35 0-68.5-13T53 310t-39.5-59T0 182q0-37 13.5-69.5T53 54q26-27 59.5-40t68-13 68 13T309 54q26 26 39.5 58.5T362 182q0 63-41 113l13 13q16-7 32.5-4t29.5 15zM80 282q21 21 47.5 31.5T181 324t53-10.5 47-31.5 31.5-47 10.5-53-10.5-53.5T281 81q-20-21-46.5-31.5T181 39q-28 0-54 10.5T80 81t-31 47.5T39 182t10 53 31 47zm386 161l-97-97q-5-4-12-4t-12 4q-4 4-4 12t4 12l97 97z"/></svg>

<?xml version="1.0" encoding="UTF-8" standalone="no"?><svg   xmlns:svg="http://www.w3.org/2000/svg"   xmlns="http://www.w3.org/2000/svg"   version="1.1"   width="512"   height="512"   viewBox="0 0 512 512">  <path     d="M506 430Q512 435 512 443T506 457L456 507Q450 513 442 513Q433 513 429 507L318 397Q302 379 302 358Q302 347 307 335L294 322Q243 362 181 362Q146 362 112.5 349T53 310T13.5 251T0 182Q0 145 13.5 112.5T53 54Q79 27 112.5 14T180.5 1T248.5 14T309 54Q335 80 348.5 112.5T362 182Q362 245 321 295L334 308Q350 301 366.5 304T396 319zM80 282Q101 303 127.5 313.5T181 324T234 313.5T281 282T312.5 235T323 182T312.5 128.5T281 81Q261 60 234.5 49.5T181 39Q153 39 127 49.5T80 81T49 128.5T39 182T49 235T80 282zM466 443L369 346Q364 342 357 342T345 346Q341 350 341 358T345 370L442 467z"     id="org-search" /></svg>
